dist/svg/share.svg

<svg width="16" height="16" viewBox="0 0 16 16" fill="rgb(34, 34, 34)" xmlns="http://www.w3.org/2000/svg"><title>share</title><path d="M15 12.5V12.502C15 13.883 13.881 15.002 12.5 15.002C11.119 15.002 9.99999 13.883 9.99999 12.502C9.99999 12.406 10.005 12.311 10.016 12.217L10.015 12.228L5.36899 10.157C4.90899 10.675 4.24099 10.999 3.49799 10.999C2.11699 10.999 0.997986 9.88 0.997986 8.499C0.997986 7.118 2.11699 5.999 3.49799 5.999C4.18199 5.999 4.80099 6.273 5.25199 6.718L10.064 4.059C10.023 3.89 9.99999 3.695 9.99999 3.495C9.99999 2.112 11.121 0.990997 12.504 0.990997C13.887 0.990997 15.008 2.112 15.008 3.495C15.008 4.878 13.887 5.999 12.504 5.999C11.676 5.999 10.942 5.597 10.486 4.978L10.481 4.971L5.81299 7.55C5.93199 7.83 5.99999 8.156 5.99999 8.499C5.99999 8.781 5.95299 9.051 5.86699 9.304L5.87199 9.286L10.323 11.271C10.76 10.506 11.571 10 12.5 10C13.88 10 14.999 11.119 14.999 12.499V12.5H15Z" fill="rgb(34, 34, 34)" fill-opacity="1.00"/></svg>

<!-- Generated by Trend Micro Style Portal -->
<svg version="1.1" xmlns="http://www.w3.org/2000/svg" width="16" height="16" viewBox="0 0 16 16">
  <title>share</title>
  <path fill="rgb(34,34,34)" d="M15 12.5c0 0.001 0 0.001 0 0.002 0 1.381-1.119 2.5-2.5 2.5s-2.5-1.119-2.5-2.5c0-0.096 0.005-0.191 0.016-0.285l-0.001 0.011-4.646-2.071c-0.46 0.518-1.128 0.842-1.871 0.842-1.381 0-2.5-1.119-2.5-2.5s1.119-2.5 2.5-2.5c0.684 0 1.303 0.274 1.754 0.719l-0-0 4.812-2.659c-0.041-0.169-0.064-0.364-0.064-0.564 0-1.383 1.121-2.504 2.504-2.504s2.504 1.121 2.504 2.504c0 1.383-1.121 2.504-2.504 2.504-0.828 0-1.562-0.402-2.018-1.021l-0.005-0.007-4.668 2.579c0.119 0.28 0.187 0.606 0.187 0.949 0 0.282-0.047 0.552-0.133 0.805l0.005-0.018 4.451 1.985c0.437-0.765 1.248-1.271 2.177-1.271 1.38 0 2.499 1.119 2.499 2.499 0 0 0 0.001 0 0.001v-0z"></path>
</svg>
